images/brands/fidel.svg

<svg height="160" viewBox="0 0 600 160" width="600" xmlns="http://www.w3.org/2000/svg" xmlns:xlink="http://www.w3.org/1999/xlink"><mask id="a" fill="#fff"><path d="m599.533 159.548853v-159.54670633h-599.5319v159.54670633z" fill="#fff" fill-rule="evenodd"/></mask><path d="m559.6811.52378667h-44.968v159.02506633h84.821v-36.4504h-39.853zm-178.618 159.02506633h93.676v-36.4504h-48.719v-26.4039997h48.719v-34.8404h-48.719v-26.4469333h48.719v-34.88333333h-93.676zm-89.419-47.924333c-6.93 7.6314-16.918 11.473933-29.733 11.473933h-3.586v-86.6501997h3.586c26.18 0 40.029 15.0481334 40.029 43.4485334 0 13.5669333-3.443 24.2036663-10.296 31.7277333zm29.799-91.9739333c-7.832-6.4614667-17.127-11.3558667-27.687-14.62953337-10.648-3.32733333-22.11-5.0232-33.99-5.0232h-42.922v159.55099967h42.922c14.861 0 27.896-2.135933 38.874-6.354133 10.857-4.175267 19.987-9.971267 27.06-17.237733 7.095-7.2772 12.43-15.863867 15.939-25.641934 3.465-9.863933 5.28-20.554333 5.28-31.727733 0-13.1483333-2.343-24.7618-6.919-34.5506-4.565-9.7673333-10.835-17.9783333-18.557-24.3861333zm-191.004 139.8982663h45.507v-159.02506633h-45.507zm-130.438 0h44.957v-62.8543997h30.844l17.886-34.8404h-48.73v-26.4469333h48.73v-34.88333333h-93.687z" fill="#fff" fill-rule="evenodd" mask="url(#a)"/></svg>

<?xml version="1.0" encoding="UTF-8"?>
<svg width="600px" height="160px" viewBox="0 0 600 160" version="1.1" xmlns="http://www.w3.org/2000/svg" xmlns:xlink="http://www.w3.org/1999/xlink">
    <!-- Generator: Sketch 50 (54983) - http://www.bohemiancoding.com/sketch -->
    <title>FIDEL Logo</title>
    <desc>Created with Sketch.</desc>
    <defs>
        <polygon id="path-1" points="599.533 159.548853 599.533 0.00214666667 0.00109999997 0.00214666667 0.00109999997 159.548853 599.533 159.548853"></polygon>
    </defs>
    <g id="Page-1" stroke="none" stroke-width="1" fill="none" fill-rule="evenodd">
        <g id="Artboard" transform="translate(-14.000000, -4.000000)">
            <g id="FIDEL-Logo-Copy-2" transform="translate(14.000000, 4.000000)">
                <mask id="mask-2" fill="white">
                    <use xlink:href="#path-1"></use>
                </mask>
                <g id="Clip-2"></g>
                <path d="M559.6811,0.523786667 L514.7131,0.523786667 L514.7131,159.548853 L599.5341,159.548853 L599.5341,123.098453 L559.6811,123.098453 L559.6811,0.523786667 Z M381.0631,159.548853 L474.7391,159.548853 L474.7391,123.098453 L426.0201,123.098453 L426.0201,96.6944533 L474.7391,96.6944533 L474.7391,61.8540533 L426.0201,61.8540533 L426.0201,35.40712 L474.7391,35.40712 L474.7391,0.523786667 L381.0631,0.523786667 L381.0631,159.548853 Z M291.6441,111.62452 C284.7141,119.25592 274.7261,123.098453 261.9111,123.098453 L258.3251,123.098453 L258.3251,36.4482533 L261.9111,36.4482533 C288.0911,36.4482533 301.9401,51.4963867 301.9401,79.8967867 C301.9401,93.46372 298.4971,104.100453 291.6441,111.62452 L291.6441,111.62452 Z M321.4431,19.6505867 C313.6111,13.18912 304.3161,8.29472 293.7561,5.02105333 C283.1081,1.69372 271.6461,-0.00214666666 259.7661,-0.00214666666 L216.8441,-0.00214666666 L216.8441,159.548853 L259.7661,159.548853 C274.6271,159.548853 287.6621,157.41292 298.6401,153.19472 C309.4971,149.019453 318.6271,143.223453 325.7001,135.956987 C332.7951,128.679787 338.1301,120.09312 341.6391,110.315053 C345.1041,100.45112 346.9191,89.76072 346.9191,78.58732 C346.9191,65.4389867 344.5761,53.82552 340.0001,44.03672 C335.4351,34.2693867 329.1651,26.0583867 321.4431,19.6505867 L321.4431,19.6505867 Z M130.4391,159.548853 L175.9461,159.548853 L175.9461,0.523786667 L130.4391,0.523786667 L130.4391,159.548853 Z M0.00109999997,159.548853 L44.9581,159.548853 L44.9581,96.6944533 L75.8021,96.6944533 L93.6881,61.8540533 L44.9581,61.8540533 L44.9581,35.40712 L93.6881,35.40712 L93.6881,0.523786667 L0.00109999997,0.523786667 L0.00109999997,159.548853 Z" id="Fill-1" fill="#FFFFFF" mask="url(#mask-2)"></path>
            </g>
        </g>
    </g>
</svg>
